openmetadata-ui/src/main/resources/ui/src/assets/svg/announcements-purple.svg

<svg width="12" height="12" viewBox="0 0 12 12" fill="none" xmlns="http://www.w3.org/2000/svg">
<path d="M10.1724 4.33329V1.33327C10.1724 1.199 10.0952 1.07789 9.97659 1.02596C9.85798 0.974003 9.72103 1.00147 9.62926 1.09554C9.60418 1.12123 7.09297 3.66662 4.70116 3.66662H2.46581C1.40933 3.66662 0.549805 4.56383 0.549805 5.66663C0.549805 6.65828 1.24485 7.48356 2.1531 7.63987C2.22033 9.23932 2.78261 10.7242 2.80799 10.7905C2.85649 10.917 2.9739 11 3.10448 11H4.70116C4.81612 11 4.92216 10.9354 4.97887 10.831C5.03558 10.7266 5.03411 10.5984 4.9751 10.4954C4.96938 10.4854 4.61121 9.85306 4.34535 8.99977H5.24922C5.46464 9.00023 5.61943 8.78063 5.55337 8.56507C5.46134 8.26485 5.39899 7.98494 5.36644 7.72818C7.53663 8.11643 9.60652 10.2144 9.62919 10.2376C9.72044 10.3313 9.85724 10.3596 9.97654 10.3074C10.0952 10.2555 10.1725 10.1343 10.1725 9.99999V6.99997C10.8768 6.99997 11.4498 6.40184 11.4498 5.66663C11.4498 4.93143 10.8767 4.33329 10.1724 4.33329ZM1.18847 5.66663C1.18847 4.93143 1.76149 4.33329 2.46581 4.33329H4.38182V6.99997H2.46581C1.76149 6.99997 1.18847 6.40184 1.18847 5.66663ZM3.32727 10.3333C3.17831 9.88913 2.85099 8.80065 2.79385 7.66665H3.43516C3.5068 8.73665 3.90167 9.75075 4.17149 10.3333H3.32727ZM4.17189 8.33332C4.12714 8.11596 4.09333 7.89207 4.07586 7.66665C4.07586 7.66665 4.71184 7.66689 4.71719 7.66691C4.73645 7.87762 4.77305 8.10007 4.82736 8.33332H4.17189ZM9.53375 9.25859C8.32039 8.20636 6.70573 7.18404 5.13573 7.02271C5.09994 7.00822 5.06117 6.99997 5.02049 6.99997V4.32096C6.63273 4.19785 8.29571 3.14831 9.53375 2.07465V9.25859ZM10.1724 6.3333V4.99996C10.5246 4.99996 10.8111 5.29903 10.8111 5.66663C10.8111 6.03424 10.5246 6.3333 10.1724 6.3333Z" fill="#B02AAC" stroke="#B02AAC" stroke-width="0.2"/>
</svg>

<svg xmlns="http://www.w3.org/2000/svg" width="12" height="12" fill="none"><path fill="#B02AAC" stroke="#B02AAC" stroke-width=".2" d="M10.172 4.333v-3a.334.334 0 0 0-.195-.307.31.31 0 0 0-.348.07c-.025.025-2.536 2.57-4.928 2.57H2.466c-1.057 0-1.916.898-1.916 2 0 .992.695 1.818 1.603 1.974.067 1.6.63 3.084.655 3.15a.32.32 0 0 0 .296.21h1.597a.317.317 0 0 0 .278-.169.346.346 0 0 0-.004-.336A8.403 8.403 0 0 1 4.345 9h.904c.216 0 .37-.22.304-.435-.092-.3-.154-.58-.187-.837 2.17.388 4.24 2.486 4.263 2.51a.31.31 0 0 0 .348.07.334.334 0 0 0 .195-.308V7c.705 0 1.278-.598 1.278-1.333 0-.736-.573-1.334-1.278-1.334ZM1.188 5.667c0-.736.573-1.334 1.278-1.334h1.916V7H2.466c-.705 0-1.278-.598-1.278-1.333Zm2.14 4.666c-.15-.444-.477-1.532-.534-2.666h.641c.072 1.07.467 2.084.736 2.666h-.844Zm.844-2a5.377 5.377 0 0 1-.096-.666h.641c.02.21.056.433.11.666h-.655Zm5.362.926C8.32 8.206 6.706 7.184 5.136 7.023A.306.306 0 0 0 5.02 7V4.321c1.613-.123 3.276-1.173 4.514-2.246v7.184Zm.638-2.926V5c.353 0 .64.299.64.667 0 .367-.287.666-.64.666Z"/></svg>
